images/newsdarkarrow.svg

<svg width="17" height="16" viewBox="0 0 17 16" fill="none" xmlns="http://www.w3.org/2000/svg">
<g id="Chevron Down">
<path id="Vector" fill-rule="evenodd" clip-rule="evenodd" d="M10.9458 7.89099C11.122 8.0672 11.122 8.35285 10.9458 8.52906L6.34552 13.1293C6.1693 13.3055 5.88365 13.3055 5.70744 13.1293L5.49471 12.9166C5.3185 12.7404 5.3185 12.4547 5.49471 12.2785L9.56321 8.21002L5.49471 4.14152C5.31849 3.96531 5.31849 3.67966 5.49471 3.50345L5.70744 3.29072C5.88365 3.1145 6.1693 3.1145 6.34552 3.29072L10.9458 7.89099Z" fill="#FF94C7"/>
</g>
</svg>

<svg xmlns="http://www.w3.org/2000/svg" width="17" height="16" fill="none"><path fill="#FF94C7" fill-rule="evenodd" d="M10.946 7.891a.451.451 0 0 1 0 .638l-4.6 4.6a.451.451 0 0 1-.639 0l-.212-.212a.451.451 0 0 1 0-.639L9.563 8.21 5.495 4.142a.451.451 0 0 1 0-.639l.212-.212a.451.451 0 0 1 .639 0l4.6 4.6Z" clip-rule="evenodd"/></svg>
